X:65
T:Farrier's song - Snow
%%VWML:SBG-1-2-591-0
F:http://www.vwml.org/record/SBG/1/2/591
Z:Original Sibelius transcriptions by M. & S. Graebe
M:6/8
I:linebreak $
K:C
V:1 treble nm="P1"
V:1
 G3/2 F/ | E ED CCC | A,B,C D/ D/ z C | EEC FF G/F/ | EDC G/ G/ z G/>F/ :| C/>C/ |$ %6
w: |||* * * * fellows * *|||
 E E C/C/ F/ F/ F G/F/ | EDC G2 G/F/ | E E D/D/ CC C/C/ | A,B,C D/ D/ z C | EEC FF>D | %11
w: |||||
 GGG C/ C/ x2 | %12
w: |
T:Farrier's song - unattributed
%%VWML:SBG-1-2-591-0
F:http://www.vwml.org/record/SBG/1/2/591
Z:Original Sibelius transcriptions by M. & S. Graebe
M:6/8
I:linebreak $
K:G
V:1 treble nm="P1"
V:1
 dc | B B A G G D | E F G A2 G | B B G c e c | B B A G2 d |$ e d c B G B | c B A d2 c | %7
 B AG A D z | B2 AG A D c/B/ |$ A A B G dc | B B A G G D | E F G A2 G | B B G c e c | B B A G3 | %14

